X:1
T:Title
%%score { ( 1 3 ) | 2 }
L:1/8
M:4/4
K:Eb
V:1 treble nm="Grand Piano"
V:3 treble 
V:2 bass 
V:1
 z4 z2[Q:1/4=100] [B,EG][B,FA] | [B,GB]>[B,GB] [C_G=A][B,=GB] [Ge][Ge][_Ad][Ac] | %2
 [GB][Gc]EF G2 GG | [DF]>[_D=E] [=DF][_EG] [FA][FA][EG][DF] |[M:9/8] GG=A c [DB]2- [DB][EG][F_A] | %5
[M:4/4] [GB]>[GB] [_G=A][=GB] [Ge][Ge][_Ad][Ac] | [GB][Gc]EF G2 GG | F2 A2 G2 [DF]2 |[M:3/4] E6 | %9
[M:1/4] BB |[M:4/4] e6 z2 | [GB]3 [FA] G2 GG | A6 z2 | [B,EG]3 [B,FA] [EGB]2 BB | %14
 e-[Ge] e->[Ge-] [Ae]2 dc | B-[GB-][GB]A G2 GG | FFGA G2 DB, |[M:3/4] E6 |] %18
V:2
 z4 z2 E,E, | E,>E, E,E, [E,B,][E,B,][E,C][E,D] | %2
 [E,E][E,B,][E,G,][E,A,E] [E,B,E]2 [E,B,E][E,B,E] | %3
 [B,,B,]>[B,,B,] [B,,B,][B,,B,] [B,,B,][B,,B,][B,,B,][B,,B,] | %4
[M:9/8] [E,B,E][E,B,E][F,E] [F,=A,E] [B,,B,]2- [B,,B,][E,B,][E,B,] | %5
[M:4/4] [E,B,]>[E,B,] [E,C][E,B,] [E,B,][E,B,][E,C][E,D] | %6
 [E,E][E,B,][E,G,][E,A,E] [E,B,E]2 [E,B,E][E,B,E] | [A,CE]2 [F,CE]2 [B,E]2 [B,,A,]2 | %8
[M:3/4] [E,G,]6 |[M:1/4] B,B, |[M:4/4] [E,B,]2 [E,B,]2[K:treble] [A,C]2 [A,DA][A,EA] | %11
 [E,E]3 [E,E] [E,B,E]2 [E,B,E][E,B,E] | [B,,B,]>[B,,B,] [B,,B,]B,, B,,2 B,,B,, | E,3 E, E,2 B,B, | %14
 [E,B,][E,B,] [E,B,]>[E,B,][K:treble] [A,C]2 [A,CA][A,EA] | %15
 [E,E][E,E][E,E][E,B,F] [E,B,E]2 [E,B,E][E,B,E] | [A,C][A,C][G,C=E][F,CF] [B,_E]2 [B,,A,]2 | %17
[M:3/4] [E,G,B,]6 |] %18
V:3
 x8 | x8 | x8 | x8 |[M:9/8] x9 |[M:4/4] x8 | x8 | x8 |[M:3/4] x6 |[M:1/4] x2 |[M:4/4] G2 G2 A2 dc | %11
 x8 | D>D D[CE] [DF]2 [B,EG][B,DF] | x8 | .G2 G2 z4 | .G2 z2 z4 | z4 z2 F2 |[M:3/4] x6 |] %18

